logo.svg

<?xml version="1.0" encoding="UTF-8"?>
<svg width="126px" height="126px" viewBox="0 0 126 126" version="1.1" xmlns="http://www.w3.org/2000/svg" xmlns:xlink="http://www.w3.org/1999/xlink">
    <g stroke="none" stroke-width="1" fill="none" fill-rule="evenodd">
        <path d="M73.3305754,20.3563554 C73.5065002,22.3671855 73.159303,23.7175781 72.222037,25.5520528 C73.1247451,24.2454176 74.3329263,22.8692397 75.8465804,21.4235189 L76.2312469,21.0646369 L80.9344024,16.7777848 L79.5291565,22.9843987 C78.3611078,28.1433727 79.297117,31.2323029 82.6622988,35.7154572 L82.9868323,36.1422452 L84.9095203,38.6018184 C90.165853,45.3790771 92.4612495,51.4808628 91.4289583,60.6579972 L91.3669703,61.1807673 L91.328,61.469 L91.3926866,61.3491851 C91.7405743,60.6696554 92.0557323,59.9369684 92.338115,59.1501515 L92.5036111,58.671558 L92.6392026,58.2509597 L93.931198,54.1092177 L96.2413618,57.7816041 C98.3312062,61.1037566 98.5546302,65.821597 97.0204583,71.9787542 L96.8956899,72.4678366 L96.839,72.676 L98.5254047,68.8502057 L99.9226104,74.5761888 C101.007706,79.0230931 101.553943,82.9770296 101.553943,86.4460573 C101.553943,98.5485269 95.937139,109.721106 86.5555047,116.969547 C83.3475809,119.337875 79.9061617,121.236062 76.2312469,122.664108 C72.5563321,124.092154 68.1459164,124.870785 63,125 C41.7072454,125 24.4460573,107.738812 24.4460573,86.4460573 C24.4460573,80.9992223 24.8610182,75.8538681 25.6924575,71.0104292 L25.8642989,70.0457671 L27.4961133,61.2091175 L29.162,67.589 L29.1396997,67.2987659 C28.5424408,59.0856244 30.358716,53.6765771 34.4893236,47.8867478 L35.0065655,47.1758136 L35.757884,46.1739922 L36.5037247,45.1870965 L36.8765797,44.6895733 L37.1851844,44.2726474 L37.7611574,43.4761166 C38.8609104,41.9275949 39.6586611,40.6254271 40.3552044,39.1936699 L40.5273479,38.8328133 L41.0392919,37.7422987 L40.8654361,37.4166782 L40.4855277,36.7219071 C40.4185539,36.6009012 40.3497262,36.4771653 40.2790054,36.3505124 C37.4535038,31.2903568 40.5681737,24.5113391 46.0630072,21.3066521 L46.3307289,21.1543984 L48.5037531,19.9499025 C50.4567742,17.1696243 52.5985302,13.3725662 54.0853865,10.9218788 C55.076624,9.28808721 53.8670866,5.73309835 50.4567742,0.256912231 C53.764026,1.09199467 56.5365574,2.31543039 58.7743685,3.92721939 C60.7712889,5.36550635 66.7341844,9.84722745 70.2747421,13.9095247 C72.6115948,16.5907379 73.2226841,19.1231523 73.3305754,20.3563554 Z" fill="#FFFFFF" fill-rule="nonzero"></path>
        <path d="M53.035194,15.7844654 C51.6331292,21.4835782 54.6994184,24.5029323 58.4260439,27.5330092 L58.9379554,27.9465207 C59.0828806,28.0629816 59.2285224,28.1796382 59.374666,28.2966422 L59.8143878,28.6488483 C60.4755845,29.1791762 61.1425939,29.719613 61.7958406,30.2839894 L62.2290848,30.6639387 C65.7470853,33.7983008 68.7281896,37.733382 68.0132457,44.7012202 C72.4174415,40.4110565 69.0423428,30.3233533 77.5785282,22.542755 C73.5329474,40.4110565 95.5268656,38.2784358 87.9982606,68.0361867 C91.0343742,66.1755389 93.2177754,63.1123247 94.548464,58.8465441 C97.2319104,63.1123247 96.2295388,70.6944689 91.5413492,81.5929765 C94.4915009,80.2776825 96.6375907,78.0967907 97.9796185,75.0503011 C99.029168,79.3515306 99.5539427,83.150116 99.5539427,86.4460573 C99.5539427,98.4054307 93.8106836,109.023394 84.9317973,115.692315 C84.6437004,109.611823 84.2878718,103.814354 83.8641516,98.2980538 C83.0824772,88.1216447 81.3037959,82.6979878 77.7105447,77.5260296 C74.1172934,72.3540714 70.110445,70.6924079 64.4796655,69.9125638 C58.8488859,69.1327196 53.278505,70.3540894 47.1184524,73.5606812 C40.9583999,76.7672731 36.9443315,83.2847011 38.7149951,87.0125949 C40.4856588,90.7404886 46.194178,93.1425678 52.8534899,92.9180841 C59.5128019,92.6936003 64.1707792,90.3210439 65.8932003,89.6795027 C67.6156213,89.0379615 68.3419905,91.1040711 67.0250088,91.7873896 C66.147021,92.2429353 64.5904556,93.0536831 62.3553126,94.219633 C63.2274154,99.1210828 63.6634667,104.129484 63.6634667,109.244837 C63.6634667,113.423541 63.5963165,118.007238 63.462016,122.995926 L63,123 C42.8118149,123 26.4460573,106.634242 26.4460573,86.4460573 C26.4460573,80.7546771 26.9077202,75.4089764 27.831046,70.4089553 C28.5829855,73.2889674 30.1838411,75.4066626 32.6336127,76.7620408 C28.9954512,60.1124558 32.4319933,54.0068126 36.6093673,48.3720688 L36.9797205,47.8758513 C37.103705,47.710682 37.2281692,47.5456637 37.352952,47.3805402 L37.7280948,46.8845978 L38.1041821,46.3864864 L38.4802468,45.8846682 C39.8579281,44.0359931 41.2156569,42.081555 42.3389415,39.6802379 C41.1455575,46.9808673 39.5502092,53.1608685 45.5758425,58.8465441 C44.9606413,53.8980823 46.2554177,51.240251 47.7039945,48.6919211 L48.0053185,48.1655275 L48.3075752,47.637966 C49.5641211,45.4313984 50.7549482,43.0826312 50.7549482,39.1943075 C50.7549482,36.5355126 50.24056,34.5694184 49.7249939,32.7770593 L49.6146844,32.3954524 C49.5244448,32.084137 49.4353026,31.7770484 49.3500493,31.471364 L49.2497906,31.105036 C48.2857824,27.5058848 48.0187355,23.9450208 53.035194,15.7844654 Z M53.3984751,76.2974908 C54.4785553,76.2974908 55.3541332,77.1730687 55.3541332,78.2531489 C55.3541332,79.3332291 54.4785553,80.208807 53.3984751,80.208807 C52.3183949,80.208807 51.442817,79.3332291 51.442817,78.2531489 C51.442817,77.1730687 52.3183949,76.2974908 53.3984751,76.2974908 Z M45.5758425,74.9937187 C46.6559227,74.9937187 47.5315007,75.8692966 47.5315007,76.9493768 C47.5315007,78.029457 46.6559227,78.9050349 45.5758425,78.9050349 C44.4957624,78.9050349 43.6201844,78.029457 43.6201844,76.9493768 C43.6201844,75.8692966 44.4957624,74.9937187 45.5758425,74.9937187 Z M47.3003786,22.9036209 C45.5521409,24.6874372 45.9316831,29.879424 47.9413212,34.4383243 C49.9509593,38.9972245 47.3003786,42.4281093 44.4597733,46.6519718 C44.9557005,41.03127 44.4382679,39.6969533 42.0252203,35.3754567 C39.6121728,31.0539602 42.9178657,25.3329873 47.3003786,22.9036209 Z M64.4565531,10.822718 C67.3188749,14.7457375 70.894487,15.4591645 71.338186,20.5306669 C71.5111534,22.5076933 70.9384589,23.7140144 70.2759245,24.9584303 L70.1014827,25.2844565 C69.1063178,27.142862 68.0394506,29.2382042 69.0194335,34.1832116 C64.354715,27.8600013 64.5968705,25.0474025 65.3137679,22.301844 L65.4075242,21.951446 C65.4394082,21.8345912 65.4718104,21.7175924 65.5043892,21.6001844 L65.602314,21.246467 C66.2704201,18.8173813 66.8692298,16.1047822 64.4565531,10.822718 Z M54.0853865,3 C58.3544374,5.92789876 62.2756184,7.83368962 62.6232096,12.8044754 C62.7563296,14.7081806 62.4297423,16.0300802 62.1130468,17.279156 L62.0084922,17.6935156 C61.5454425,19.5522802 61.2220493,21.3744365 62.6232096,24.8777978 C55.9129192,20.8133123 56.093092,17.8384368 56.6575068,14.474297 L56.7239666,14.0843153 L56.7239666,14.0843153 L56.7916158,13.6903738 C57.2866417,10.785716 57.6984449,7.52090501 54.0853865,3 Z" fill="#23241f"></path>
    </g>
</svg>

<svg xmlns="http://www.w3.org/2000/svg" viewBox="0 0 126 126">
  <path fill="#fff" d="M73.33 20.356c.177 2.011-.17 3.362-1.108 5.196.903-1.307 2.11-2.683 3.625-4.128l.384-.36 4.703-4.286-1.405 6.206c-1.168 5.16-.232 8.248 3.133 12.731l.325.427 1.923 2.46c5.256 6.777 7.551 12.879 6.519 22.056l-.062.523-.039.288.065-.12c.348-.68.663-1.412.945-2.199l.166-.478.135-.421 1.292-4.142 2.31 3.673c2.09 3.322 2.314 8.04.78 14.197l-.125.489-.057.208 1.686-3.826 1.398 5.726c1.085 4.447 1.63 8.401 1.63 11.87 0 12.103-5.616 23.275-14.997 30.524a44.376 44.376 0 01-10.325 5.694C72.556 124.092 68.146 124.871 63 125c-21.293 0-38.554-17.261-38.554-38.554 0-5.447.415-10.592 1.246-15.436l.172-.964 1.632-8.837 1.666 6.38-.022-.29c-.598-8.213 1.219-13.622 5.35-19.412l.517-.711.75-1.002.747-.987.373-.497.308-.417.576-.797c1.1-1.548 1.898-2.85 2.594-4.282l.172-.361.512-1.09-.174-.326-.38-.695a113.48 113.48 0 00-.206-.371c-2.825-5.06.29-11.84 5.784-15.044l.268-.153 2.173-1.204c1.953-2.78 4.095-6.577 5.581-9.028.992-1.634-.218-5.189-3.628-10.665 3.307.835 6.08 2.058 8.317 3.67 1.997 1.439 7.96 5.92 11.5 9.983 2.338 2.68 2.949 5.213 3.057 6.446z"/>
  <path fill="#23241f" d="M53.035 15.784c-1.402 5.7 1.664 8.719 5.391 11.749l.512.414.437.35.44.352c.66.53 1.328 1.07 1.98 1.635l.434.38c3.518 3.134 6.5 7.07 5.784 14.037 4.404-4.29 1.03-14.378 9.566-22.158-4.046 17.868 17.948 15.735 10.42 45.493 3.035-1.86 5.219-4.924 6.55-9.19 2.683 4.266 1.68 11.848-3.008 22.747 2.95-1.315 5.097-3.496 6.439-6.543 1.05 4.302 1.574 8.1 1.574 11.396 0 11.96-5.743 22.577-14.622 29.246a595.417 595.417 0 00-1.068-17.394c-.782-10.176-2.56-15.6-6.153-20.772-3.594-5.172-7.6-6.834-13.231-7.613-5.631-.78-11.201.441-17.362 3.648-6.16 3.206-10.174 9.724-8.403 13.452 1.77 3.727 7.48 6.13 14.138 5.905 6.66-.224 11.318-2.597 13.04-3.238 1.723-.642 2.449 1.424 1.132 2.107-.878.456-2.435 1.267-4.67 2.433a85.609 85.609 0 011.308 15.025c0 4.179-.067 8.762-.201 13.75L63 123c-20.188 0-36.554-16.366-36.554-36.554 0-5.691.462-11.037 1.385-16.037.752 2.88 2.353 4.998 4.803 6.353-3.639-16.65-.202-22.755 3.975-28.39l.37-.496.374-.495.375-.496.376-.499.376-.501c1.378-1.849 2.736-3.803 3.859-6.205-1.193 7.3-2.789 13.48 3.237 19.167-.615-4.949.68-7.607 2.128-10.155l.301-.526.303-.528c1.256-2.207 2.447-4.555 2.447-8.444 0-2.658-.514-4.625-1.03-6.417l-.11-.382c-.09-.31-.18-.618-.265-.924l-.1-.366c-.964-3.6-1.231-7.16 3.785-15.32zm.363 60.513a1.956 1.956 0 110 3.912 1.956 1.956 0 010-3.912zm-7.822-1.303a1.956 1.956 0 110 3.911 1.956 1.956 0 010-3.911zm1.724-52.09c-1.748 1.783-1.368 6.975.641 11.534 2.01 4.56-.64 7.99-3.481 12.214.496-5.62-.022-6.955-2.435-11.277-2.413-4.321.893-10.042 5.275-12.471zm17.157-12.081c2.862 3.923 6.437 4.636 6.881 9.708.173 1.977-.4 3.183-1.062 4.427l-.175.326c-.995 1.859-2.062 3.954-1.082 8.9-4.664-6.324-4.422-9.137-3.705-11.882l.094-.35.096-.352.098-.354c.668-2.429 1.267-5.141-1.145-10.423zM54.085 3c4.27 2.928 8.19 4.834 8.538 9.804.133 1.904-.193 3.226-.51 4.475l-.105.415c-.463 1.858-.786 3.68.615 7.184-6.71-4.065-6.53-7.04-5.965-10.404l.066-.39.068-.394c.495-2.904.906-6.17-2.707-10.69z"/>
</svg>
